icons/evolvere-blue-folders-flat-vivid-dark-fallback/apps/64/cantata.svg

<?xml version="1.0" encoding="UTF-8" standalone="no"?>
<!-- Created with Inkscape (http://www.inkscape.org/) -->

<svg
   xmlns:dc="http://purl.org/dc/elements/1.1/"
   xmlns:cc="http://creativecommons.org/ns#"
   xmlns:rdf="http://www.w3.org/1999/02/22-rdf-syntax-ns#"
   xmlns:svg="http://www.w3.org/2000/svg"
   xmlns="http://www.w3.org/2000/svg"
   xmlns:sodipodi="http://sodipodi.sourceforge.net/DTD/sodipodi-0.dtd"
   xmlns:inkscape="http://www.inkscape.org/namespaces/inkscape"
   width="64"
   height="64"
   id="svg13094"
   version="1.1"
   inkscape:version="0.91+devel r"
   sodipodi:docname="cantata.svg">
  <sodipodi:namedview
     id="base"
     pagecolor="#ffffff"
     bordercolor="#666666"
     borderopacity="1.0"
     inkscape:pageopacity="0"
     inkscape:pageshadow="2"
     inkscape:zoom="11.313709"
     inkscape:cx="26.189601"
     inkscape:cy="33.348014"
     inkscape:document-units="px"
     inkscape:current-layer="svg13094"
     showgrid="true"
     inkscape:snap-bbox="true"
     inkscape:bbox-paths="true"
     inkscape:bbox-nodes="true"
     inkscape:snap-bbox-edge-midpoints="true"
     inkscape:snap-bbox-midpoints="true"
     inkscape:object-paths="true"
     inkscape:snap-intersection-paths="true"
     inkscape:object-nodes="true"
     inkscape:snap-smooth-nodes="true"
     inkscape:snap-midpoints="true"
     inkscape:snap-object-midpoints="true"
     inkscape:snap-center="true"
     showguides="true"
     inkscape:guide-bbox="true"
     inkscape:window-width="1920"
     inkscape:window-height="1023"
     inkscape:window-x="-10"
     inkscape:window-y="35"
     inkscape:window-maximized="1"
     inkscape:snap-global="true"
     fit-margin-top="0"
     fit-margin-left="0"
     fit-margin-right="0"
     fit-margin-bottom="0"
     showborder="true"
     inkscape:showpageshadow="false"
     inkscape:snap-page="true">
    <inkscape:grid
       type="xygrid"
       id="grid3075"
       empspacing="5"
       visible="true"
       enabled="true"
       snapvisiblegridlinesonly="true"
       originx="1.6362304e-08px"
       originy="18px" />
  </sodipodi:namedview>
  <defs
     id="defs13096" />
  <metadata
     id="metadata13099">
    <rdf:RDF>
      <cc:Work
         rdf:about="">
        <dc:format>image/svg+xml</dc:format>
        <dc:type
           rdf:resource="http://purl.org/dc/dcmitype/StillImage" />
        <dc:title></dc:title>
      </cc:Work>
    </rdf:RDF>
  </metadata>
  <path
     inkscape:connector-curvature="0"
     style="color:#000000;display:inline;overflow:visible;visibility:visible;opacity:1;fill:#2d5588;fill-opacity:1;fill-rule:nonzero;stroke:none;stroke-width:1;stroke-linecap:butt;stroke-linejoin:miter;stroke-miterlimit:4;stroke-dasharray:none;stroke-dashoffset:0;stroke-opacity:1;marker:none;enable-background:accumulate"
     d="m 0,4 0,30 0,28 2,2 30,0 30,0 2,-2 L 64,34 64,4 32,4 0,4 Z"
     id="path4095" />
  <path
     inkscape:connector-curvature="0"
     style="color:#000000;display:inline;overflow:visible;visibility:visible;opacity:1;fill:#4d89d4;fill-opacity:1;fill-rule:nonzero;stroke:none;stroke-width:2.28571415;stroke-linecap:butt;stroke-linejoin:miter;stroke-miterlimit:4;stroke-dasharray:none;stroke-dashoffset:0;stroke-opacity:1;marker:none;enable-background:accumulate"
     d="M 2,0 0,1 0,4 32,4 64,4 64,1 62,0 32,0 2,0 Z"
     id="path4090" />
  <path
     inkscape:connector-curvature="0"
     style="opacity:1;fill:#5495e6;fill-opacity:1;fill-rule:nonzero;stroke-width:1;stroke-linecap:butt;stroke-linejoin:miter;stroke-miterlimit:4;stroke-dasharray:none;stroke-dashoffset:0;stroke-opacity:1"
     d="M 0,3 0,6 2,4 Z"
     id="path4298"
     sodipodi:nodetypes="cccc" />
  <path
     d="M 64,6 62,4 64,3 Z"
     id="path3028"
     style="opacity:1;fill:#3d6fad;fill-opacity:1;stroke:none;stroke-width:0.62299293;stroke-linecap:butt;stroke-linejoin:miter;stroke-miterlimit:4;stroke-dasharray:none;stroke-dashoffset:0;stroke-opacity:1;marker:none"
     inkscape:connector-curvature="0" />
  <g
     id="g3043"
     inkscape:export-filename="folder.png"
     inkscape:export-xdpi="90"
     inkscape:export-ydpi="90"
     transform="translate(-0.62500009,0.082283)" />
  <g
     id="scalable"
     transform="matrix(1.0385892,0,0,1.0385892,1214.7222,1878.8121)"
     inkscape:label="#g3701"
     style="fill:#ffffff" />
  <path
     transform="matrix(0.95833333,0,0,0.95833333,0.37499998,0.45833331)"
     d="M 57,35 A 24,24 0 1 1 9,35 24,24 0 1 1 57,35 z"
     sodipodi:ry="24"
     sodipodi:rx="24"
     sodipodi:cy="35"
     sodipodi:cx="33"
     id="path3859"
     style="color:#000000;fill:#c9e2f6;fill-opacity:1;fill-rule:nonzero;stroke:none;stroke-width:2;marker:none;visibility:visible;display:inline;overflow:visible;enable-background:accumulate"
     sodipodi:type="arc" />
  <path
     id="path3949"
     d="m 31,19 0,19.6875 C 29.952352,38.24258 28.768785,38 27.5,38 23.357864,38 20,40.686292 20,44 c 0,3.313708 3.357864,6 7.5,6 4.142136,0 7.5,-2.686292 7.5,-6 l 0,-20.8125 c 5.667838,0.958502 10,5.871894 10,11.8125 0,3.182598 -1.249563,6.249563 -3.5,8.5 l 2.8125,2.8125 C 47.313082,43.311918 49,39.243464 49,35 49,26.163444 41.836556,19 33,19 l -2,0 z"
     style="color:#000000;fill:#004588;fill-opacity:0.09928443;fill-rule:nonzero;stroke:none;stroke-width:1;marker:none;visibility:visible;display:inline;overflow:visible;enable-background:accumulate"
     inkscape:connector-curvature="0" />
  <path
     inkscape:connector-curvature="0"
     style="color:#000000;fill:#278aec;fill-opacity:1;fill-rule:nonzero;stroke:none;stroke-width:2.28571415;marker:none;visibility:visible;display:inline;overflow:visible;enable-background:accumulate"
     d="m 30,18 0,19.6875 C 28.952352,37.24258 27.768785,37 26.5,37 22.357864,37 19,39.686292 19,43 c 0,3.313708 3.357864,6 7.5,6 4.142136,0 7.5,-2.686292 7.5,-6 l 0,-20.8125 c 5.667838,0.958502 10,5.871894 10,11.8125 0,3.182598 -1.249563,6.249563 -3.5,8.5 l 2.8125,2.8125 C 46.313082,42.311918 48,38.243464 48,34 48,25.163444 40.836556,18 32,18 l -2,0 z"
     id="path3953" />
</svg>

<svg xmlns="http://www.w3.org/2000/svg" viewBox="0 0 64 64"><g color="#000"><path d="m0 4v30 28l2 2h30 30l2-2v-28-30h-32-32" fill="#2d5588"/><path d="m2 0l-2 1v3h32 32v-3l-2-1h-30-30" fill="#4d89d4"/></g><path d="m0 3v3l2-2" fill="#5495e6"/><path d="m64 6l-2-2 2-1" fill="#3d6fad"/><g color="#000"><path transform="matrix(.95833 0 0 .95833.375.458)" d="M57 35A24 24 0 1 1 9 35 24 24 0 1 1 57 35" fill="#c9e2f6"/><path d="m31 19v19.688c-1.048-.445-2.231-.688-3.5-.688-4.142 0-7.5 2.686-7.5 6 0 3.314 3.358 6 7.5 6 4.142 0 7.5-2.686 7.5-6v-20.813c5.668.959 10 5.872 10 11.813 0 3.183-1.25 6.25-3.5 8.5l2.813 2.813c3-3 4.688-7.07 4.688-11.313 0-8.837-7.163-16-16-16h-2" fill="#004588" fill-opacity=".099"/><path d="m30 18v19.688c-1.048-.445-2.231-.688-3.5-.688-4.142 0-7.5 2.686-7.5 6 0 3.314 3.358 6 7.5 6 4.142 0 7.5-2.686 7.5-6v-20.813c5.668.959 10 5.872 10 11.813 0 3.183-1.25 6.25-3.5 8.5l2.813 2.813c3-3 4.688-7.07 4.688-11.313 0-8.837-7.163-16-16-16h-2" fill="#278aec"/></g></svg>
